Adwaita++-Light/panel/16/weather-none-available.svg

<svg height="16" width="16" xmlns="http://www.w3.org/2000/svg">
  <path d="m8 1c-2.0711 0-3.8347 1.2679-4.5938 3.0625-1.9278.2866-3.4062 1.9299-3.4062 3.9375 0 2.209 1.7909 4 4 4h1v-1c.0001-.265.1054-.52.293-.707l1.707-1.707v-.586h-2c-.5523 0-.9999-.448-1-1v-2c.0001-.5523.4477-.9999 1-1h5c.552.0001 1 .4477 1 1v2 2c0 .266-.105.521-.293.709l-1.707 1.707v.584h1 2.5c1.933 0 3.5-1.567 3.5-3.5 0-1.7965-1.351-3.2687-3.094-3.4688-.454-2.2933-2.479-4.0312-4.906-4.0312z" fill="#444" opacity=".3"/>
  <path d="m5 5v2h3v2l-2 2v2h2v-2l2-2v-2-2zm1 9v2h2v-2z" fill="#4285f4"/>
</svg>

<svg xmlns="http://www.w3.org/2000/svg" width="16" height="16" version="1.1">
 <defs>
  <style id="current-color-scheme" type="text/css">
   .ColorScheme-Text { color:#444444; } .ColorScheme-Highlight { color:#4285f4; }
  </style>
 </defs>
 <path style="opacity:0.3;fill:currentColor" class="ColorScheme-Text" d="M 8,1 C 5.9289,1 4.1653,2.2679 3.4062,4.0625 1.4784,4.3491 0,5.9924 0,8 0,10.209 1.7909,12 4,12 H 5 V 11 C 5.0001,10.735 5.1054,10.48 5.293,10.293 L 7,8.586 V 8 H 5 C 4.4477,8 4.0001,7.552 4,7 V 5 C 4.0001,4.4477 4.4477,4.0001 5,4 H 10 C 10.552,4.0001 11,4.4477 11,5 V 7 9 C 11,9.266 10.895,9.521 10.707,9.709 L 9,11.416 V 12 H 10 12.5 C 14.433,12 16,10.433 16,8.5 16,6.7035 14.649,5.2313 12.906,5.0312 12.452,2.7379 10.427,1 8,1 Z"/>
 <path style="fill:currentColor" class="ColorScheme-Highlight" d="M 5,5 V 7 H 8 V 9 L 6,11 V 13 H 8 V 11 L 10,9 V 7 5 Z M 6,14 V 16 H 8 V 14 Z"/>
</svg>
